X:0875
M:2/4
L:1/8
Q:1/4=120
K:D
a|a2f2|f2za|g2e2|e2zd|e2d2|c2d2|g2f2|e2ea|
  a2f2|f2za|g2e2|e2zg|fegf|e2d2|fedc|d3 |]

